X:474
T:First Pint, The
R:jig
C:Colin Farrell
Z:hn-jig-474
M:6/8
L:1/8
K:D
dAB d2A | Bdf efd | ~B3 ede | faa g2f |
dAB d2A | Bdf efd | ~B3 edB | AFE DFA :|
|: ~B3 BAF | ABc d2B | ABA AFE | EFA DFA |
~B3 BAF | ABc d2c | ~d3 dBA |1 abg efd :|2 abg efe ||

